X:1
T: Miss Theresa Beaton
C:Dan R. MacDonald
R:Jig
Q:180
K:Bb
M:6/8
L:1/16
C2|B,4B2 B2A2B2|C4c2 c2B2c2|d2b2B2 c2e2A2|B2d2c2 B2F2D2|B,4B2 B2A2B2|C4c2 c2B2c2|d2b2B2 c2e2A2|B6B4C2|
B,4B2 B2A2B2|C4c2 c2B2c2|d2b2B2 c2e2A2|B2d2c2 B2F2D2|B,4B2 B2A2B2|C4c2 c2B2c2|d2b2B2 c2e2A2|B6B4e2|
d4f2 f2d2f2|b2a2g2 f2d2B2|c4g2 g2f2g2|b2a2g2 f2d2B2|f2d2f2 g2e2g2|f2g2a2 b2a2g2|f2e2d2 c2B2A2|B2d2c2 B2d2e2|
d4f2 f2d2f2|b2a2g2 f2d2B2|c4g2 g2f2g2|b2a2g2 f2d2B2|B4f2 f2=e2f2|b2a2g2 f2d2B2|c2A2F2 F2G2A2|B6B4||
